assets/cloud-upload-fill.svg

<svg xmlns="http://www.w3.org/2000/svg" fill="none" viewBox="0 0 28 28">
  <path fill="#2A2238" fill-rule="evenodd" d="M14 0c-2.3096.00772523-4.54041.896252-6.2895 2.50507-1.3405 1.232-2.31175 2.83733-2.562 4.44826C2.2155 7.644 0 10.3693 0 13.6603c0 3.8229 2.989 6.873 6.61675 6.873H13.125v-9.8802l-3.7555 4.0077c-.1643.1753-.38714.2737-.6195.2737-.23236 0-.4552-.0984-.6195-.2737-.1643-.1753-.25661-.413-.25661-.6608 0-.2478.09231-.4855.25661-.6608l5.25-5.6c.0813-.08692.1778-.15588.2841-.20293.1063-.04705.2203-.07127.3354-.07127.1151 0 .2291.02422.3354.07127.1063.04705.2028.11601.2841.20293l5.25 5.6c.1643.1753.2566.413.2566.6608 0 .2478-.0923.4855-.2566.6608-.1643.1753-.3871.2737-.6195.2737-.2324 0-.4552-.0984-.6195-.2737l-3.7555-4.0077v9.8802h7.329c3.1745 0 5.796-2.6693 5.796-6.0237 0-3.0539-2.1735-5.54213-4.9595-5.96213C22.6153 3.73147 18.7075 0 14 0Zm-.875 27.0667v-6.5334h1.75v6.5334c0 .2475-.0922.4849-.2563.6599-.1641.1751-.3866.2734-.6187.2734-.2321 0-.4546-.0983-.6187-.2734-.1641-.175-.2563-.4124-.2563-.6599Z" clip-rule="evenodd"/>
</svg>

<svg width="28" height="28" viewBox="0 0 28 28" fill="none" xmlns="http://www.w3.org/2000/svg">
<path fill-rule="evenodd" clip-rule="evenodd" d="M14 0C11.6904 0.00772523 9.45959 0.896252 7.7105 2.50507C6.37 3.73707 5.39875 5.3424 5.1485 6.95333C2.2155 7.644 0 10.3693 0 13.6603C0 17.4832 2.989 20.5333 6.61675 20.5333H13.125V10.6531L9.3695 14.6608C9.2052 14.8361 8.98236 14.9345 8.75 14.9345C8.51764 14.9345 8.2948 14.8361 8.1305 14.6608C7.9662 14.4855 7.87389 14.2478 7.87389 14C7.87389 13.7522 7.9662 13.5145 8.1305 13.3392L13.3805 7.7392C13.4618 7.65228 13.5583 7.58332 13.6646 7.53627C13.7709 7.48922 13.8849 7.465 14 7.465C14.1151 7.465 14.2291 7.48922 14.3354 7.53627C14.4417 7.58332 14.5382 7.65228 14.6195 7.7392L19.8695 13.3392C20.0338 13.5145 20.1261 13.7522 20.1261 14C20.1261 14.2478 20.0338 14.4855 19.8695 14.6608C19.7052 14.8361 19.4824 14.9345 19.25 14.9345C19.0176 14.9345 18.7948 14.8361 18.6305 14.6608L14.875 10.6531V20.5333H22.204C25.3785 20.5333 28 17.864 28 14.5096C28 11.4557 25.8265 8.96747 23.0405 8.54747C22.6153 3.73147 18.7075 0 14 0ZM13.125 27.0667V20.5333H14.875V27.0667C14.875 27.3142 14.7828 27.5516 14.6187 27.7266C14.4546 27.9017 14.2321 28 14 28C13.7679 28 13.5454 27.9017 13.3813 27.7266C13.2172 27.5516 13.125 27.3142 13.125 27.0667Z" fill="#2A2238"/>
</svg>
